chord/svg/A_maj.svg

<svg xmlns="http://www.w3.org/2000/svg" xmlns:xlink="http://www.w3.org/1999/xlink">
    <symbol id="a"><svg height="30" viewBox="0 0 30 30" width="30" xmlns="http://www.w3.org/2000/svg">
            <path d="m21.275 23h-10.55v-2.025h4.375v-11.975l-4 1.35-.4-1.9 4.775-1.7h1.95v14.225h3.85z" fill="#333" />
        </svg></symbol>
    <symbol id="b"><svg height="30" viewBox="0 0 30 30" width="30" xmlns="http://www.w3.org/2000/svg">
            <g fill="none" fill-rule="evenodd">
                <circle cx="15" cy="15" fill="#333" r="15" />
                <path d="m21.275 23h-10.55v-2.025h4.375v-11.975l-4 1.35-.4-1.9 4.775-1.7h1.95v14.225h3.85z" fill="#fff"
                    fill-rule="nonzero" />
            </g>
        </svg></symbol>
    <symbol id="c"><svg height="30" viewBox="0 0 30 30" width="30" xmlns="http://www.w3.org/2000/svg">
            <g fill="none" fill-rule="evenodd" transform="translate(0 -2)">
                <circle cx="15" cy="17" fill="#333" r="15" />
                <path
                    d="m20.9749998 25h-10.6499995v-1.8249999l3.5749998-3.5249999c3.4499999-3.2999999 4.0249999-4.4999998 4.0249999-6.0749997 0-1.7-1.15-3.0499998-3.2249999-3.0499998-1.4749999 0-2.8499999.6249999-3.6749999 1.2499998l-.5499999-1.92499989c1.2249999-.77499997 2.8249998-1.32499995 4.6249998-1.32499995 3.5499998 0 5.2749998 2.22499994 5.2749998 4.67499984 0 2.1249999-.75 3.7749998-3.9999999 6.7999997l-3.0249999 2.8749999v.025c1.05-.025 2.8749999-.05 5.1499998-.05h2.4749999z"
                    fill="#fff" fill-rule="nonzero" />
            </g>
        </svg></symbol>
    <symbol id="d"><svg height="30" viewBox="0 0 30 30" width="30" xmlns="http://www.w3.org/2000/svg">
            <g fill="none" fill-rule="evenodd" transform="translate(0 -2)">
                <circle cx="15" cy="17" fill="#333" r="15" />
                <path
                    d="m10.8000002 24.85.25-2.0249999c.9.3 1.95.5 3.0749999.5 2.7249999 0 4.1499998-1.225 4.1499998-2.9999999s-1.3999999-2.8999999-4.0499998-2.8999999c-.9 0-1.5999999.025-2.4499999.125v-1.7999999h.575c3.4999998 0 5.5999998-.95 5.5999998-2.9999999 0-1.475-1.175-2.3749999-3.0749999-2.3749999-1.375 0-2.5499999.375-3.5749999.9249999l-.225-1.97499987c1.175-.47499998 2.5499999-.82499997 4.1999999-.82499997 3.3499998 0 5.0499998 1.67499994 5.0499998 3.89999984 0 1.9249999-1.15 3.2249999-3.0999999 3.7999999l-.025.025c2.0249999.1999999 3.5249999 1.8499999 3.5249999 3.7999998 0 3.1999999-2.6749999 5.2249998-6.8249998 5.2249998-1.1249999 0-2.2749999-.175-3.0999999-.4z"
                    fill="#fff" fill-rule="nonzero" />
            </g>
        </svg></symbol>
    <symbol id="e"><svg fill="none" height="225" viewBox="0 0 182 225" width="182" xmlns="http://www.w3.org/2000/svg">
            <path d="m1 56.5h179v-8h-179z" fill="#eee" />
            <path d="m1 99.5h179v-8h-179z" fill="#eee" />
            <path d="m1 142.5h179v-8h-179z" fill="#eee" />
            <path d="m1 185.5h179v-8h-179z" fill="#eee" />
            <rect height="223" rx="8" stroke="#333" stroke-width="2" width="180" x="1" y="1" />
            <path d="m1 9h180v207c0 4.418-3.582 8-8 8h-164c-4.41827 0-8-3.582-8-8z" stroke="#333" stroke-width="2" />
            <path clip-rule="evenodd" d="m39 9.99999v214.00001h-4v-214.00001z" fill="#333" fill-rule="evenodd" />
            <path clip-rule="evenodd" d="m4.00001 9-.00001 207h-4l.00000905-207z" fill="#333" fill-rule="evenodd" />
            <path clip-rule="evenodd" d="m74.5 8.00001v215.99999h-3v-215.99999z" fill="#333" fill-rule="evenodd" />
            <path clip-rule="evenodd" d="m109.954 8.00001v215.99999h-2.204v-215.99999z" fill="#333"
                fill-rule="evenodd" />
            <path clip-rule="evenodd" d="m146 10v214h-2v-214z" fill="#333" fill-rule="evenodd" />
            <path d="m0 9h4v205c0 4.971 2.23858 9 5 9-4.97056 0-9-4.029-9-9z" fill="#333" />
        </svg></symbol>
    <symbol id="f"><svg height="30" viewBox="0 0 30 30" width="30" xmlns="http://www.w3.org/2000/svg">
            <path
                d="m15 28c7.1797017 0 13-5.8202983 13-13 0-7.17970175-5.8202983-13-13-13-7.17970175 0-13 5.82029825-13 13 0 7.1797017 5.82029825 13 13 13zm0-2c-6.07513225 0-11-4.9248678-11-11 0-6.07513225 4.92486775-11 11-11 6.0751322 0 11 4.92486775 11 11 0 6.0751322-4.9248678 11-11 11z"
                fill="#333" />
        </svg></symbol>
    <symbol id="g"><svg height="30" viewBox="0 0 30 30" width="30" xmlns="http://www.w3.org/2000/svg">
            <g fill="#333" transform="translate(4 4)">
                <path
                    d="m-.47850093.76013945 21.53955993 21.53955995c.3905243.3905243 1.0236893.3905243 1.4142136 0 .3905242-.3905243.3905242-1.0236893 0-1.4142136l-21.53955997-21.53955991c-.39052429-.39052429-1.02368927-.39052429-1.41421356 0s-.39052429 1.02368927 0 1.41421356z"
                    transform="matrix(0 -1 1 0 .175 21.821)" />
                <path
                    d="m-.29969937.93571263 21.53955987 21.53955997c.3905243.3905242 1.0236893.3905242 1.4142136 0 .3905243-.3905243.3905243-1.0236893 0-1.4142136l-21.53955991-21.53955993c-.39052429-.39052429-1.02368927-.39052429-1.41421356 0-.3905243.39052429-.3905243 1.02368927 0 1.41421356z" />
            </g>
        </svg></symbol>
    <symbol id="chord"><svg width="326" height="281" version="1.1" xmlns="http://www.w3.org/2000/svg"
            xmlns:xlink="http://www.w3.org/1999/xlink">
            <rect fill="#fff" height="100%" width="100%" />
            <use height="225" width="182" x="72" xlink:href="#e" y="56" />
            <use height="30" width="30" x="21" xlink:href="#a" y="71" />
            <use height="30" width="30" x="58" xlink:href="#g" y="25" />
            <use height="30" width="30" x="94" xlink:href="#f" y="25" />
            <use height="30" width="30" x="130" xlink:href="#b" y="114" />
            <use height="30" width="30" x="166" xlink:href="#c" y="114" />
            <use height="30" width="30" x="202" xlink:href="#d" y="114" />
            <use height="30" width="30" x="238" xlink:href="#f" y="25" />
        </svg></symbol>
    <use xlink:href="#chord" />
</svg>

<?xml version="1.0" encoding="UTF-8"?>
<!DOCTYPE svg PUBLIC "-//W3C//DTD SVG 1.1//EN"
    "http://www.w3.org/Graphics/SVG/1.1/DTD/svg11.dtd"><svg xmlns="http://www.w3.org/2000/svg" xmlns:xlink="http://www.w3.org/1999/xlink" version="1.1">
<defs>
    <symbol id="circle-1-black">
      <svg xmlns="http://www.w3.org/2000/svg" width="30" height="30" viewBox="0 0 30 30">
        <polygon fill="#333"
          points="21.275 23 10.725 23 10.725 20.975 15.1 20.975 15.1 9 11.1 10.35 10.7 8.45 15.475 6.75 17.425 6.75 17.425 20.975 21.275 20.975" />
      </svg>
    </symbol>
    <symbol id="circle-2-black">
      <svg xmlns="http://www.w3.org/2000/svg" width="30" height="30" viewBox="0 0 30 30">
        <path fill="#333"
          d="M10.9749998,17 L0.325000267,17 L0.325000267,15.1750001 L3.90000012,11.6500002 C7.34999999,8.35000035 7.92499996,7.15000039 7.92499996,5.57500046 C7.92499996,3.87500052 6.77500001,2.52500066 4.70000009,2.52500066 C3.22500015,2.52500066 1.85000021,3.15000055 1.02500024,3.77500053 L0.475000261,1.85000061 C1.70000021,1.07500064 3.30000015,0.525000659 5.10000008,0.525000659 C8.64999993,0.525000659 10.3749999,2.75000057 10.3749999,5.20000047 C10.3749999,7.32500039 9.62499989,8.97500032 6.37500002,12.0000002 L3.35000015,14.8750001 L3.35000015,14.9000001 C4.4000001,14.8750001 6.22500003,14.8500001 8.49999994,14.8500001 L10.9749998,14.8500001 L10.9749998,17 Z"
          transform="translate(10 6)" />
      </svg>
    </symbol>
    <symbol id="circle-3-black">
      <svg xmlns="http://www.w3.org/2000/svg" width="30" height="30" viewBox="0 0 30 30">
        <path fill="#333"
          d="M10.8000002,22.85 L11.0500002,20.8250001 C11.9500002,21.1250001 13.0000002,21.3250001 14.1250001,21.3250001 C16.85,21.3250001 18.2749999,20.1000001 18.2749999,18.3250002 C18.2749999,16.5500003 16.875,15.4250003 14.2250001,15.4250003 C13.3250001,15.4250003 12.6250002,15.4500003 11.7750002,15.5500003 L11.7750002,13.7500004 L12.3500002,13.7500004 C15.85,13.7500004 17.95,12.8000004 17.95,10.7500005 C17.95,9.27500055 16.775,8.37500059 14.8750001,8.37500059 C13.5000001,8.37500059 12.3250002,8.75000057 11.3000002,9.30000055 L11.0750002,7.32500063 C12.2500002,6.85000065 13.6250001,6.50000066 15.2750001,6.50000066 C18.6249999,6.50000066 20.3249999,8.17500059 20.3249999,10.4000005 C20.3249999,12.3250004 19.1749999,13.6250004 17.225,14.2000004 L17.2,14.2250004 C19.2249999,14.4250003 20.7249999,16.0750003 20.7249999,18.0250002 C20.7249999,21.2250001 18.05,23.25 13.9000001,23.25 C12.7750002,23.25 11.6250002,23.075 10.8000002,22.85 Z" />
      </svg>
    </symbol>
    <symbol id="circle-4-black">
      <svg xmlns="http://www.w3.org/2000/svg" width="30" height="30" viewBox="0 0 30 30">
        <path fill="#333"
          d="M20.5749998,19.2500007 L17.8999999,19.2500007 L17.8999999,23 L15.675,23 L15.675,19.2500007 L8.1250003,19.2500007 L7.9500003,17.4250002 L14.85,6.75000065 L17.8999999,6.75000065 L17.8999999,17.2000002 L20.5749998,17.2000002 L20.5749998,19.2500007 Z M15.7,17.2000002 L15.7,9.00000056 L15.675,9.00000056 L10.2500002,17.2750002 C11.7500002,17.2000002 14.7,17.2000002 15.7,17.2000002 Z" />
      </svg>
    </symbol>
    <symbol id="circle-5-black">
      <svg xmlns="http://www.w3.org/2000/svg" width="30" height="30" viewBox="0 0 30 30">
        <path fill="#333"
          d="M11.0000002,22.9 L11.0000002,20.8250001 C11.9250002,21.1250001 12.9750002,21.3000001 14.1750001,21.3000001 C16.85,21.3000001 18.3249999,19.9750001 18.3249999,17.9500002 C18.3249999,15.9500003 16.65,14.9250003 14.0750001,14.9250003 C13.0250002,14.9250003 12.0000002,15.0000003 11.3500002,15.1250003 L11.3500002,6.75000065 L20.1499999,6.75000065 L20.1499999,8.90000056 L13.4500001,8.90000056 L13.4500001,13.1500004 C13.8750001,13.1250004 14.4500001,13.1000004 14.8250001,13.1000004 C18.6999999,13.1000004 20.7499999,15.1000003 20.7499999,17.6750002 C20.7499999,21.0250001 18.05,23.225 14.0000002,23.225 C12.9000002,23.225 11.9750002,23.125 11.0000002,22.9 Z" />
      </svg>
    </symbol>
    <symbol id="circle-6-black">
      <svg xmlns="http://www.w3.org/2000/svg" width="30" height="30" viewBox="0 0 30 30">
        <path fill="#333"
          d="M19.9508 6.60039V8.57539C19.4508 8.50039 18.9508 8.45039 18.3008 8.45039C14.9758 8.45039 13.2258 10.3754 12.6008 13.6754C12.5508 13.9254 12.4758 14.3504 12.4008 14.9004H12.4258C13.2258 13.5254 14.7258 12.7754 16.4508 12.7754C19.7008 12.7754 21.5008 14.8754 21.5008 17.5254C21.5008 20.9754 19.2508 23.2504 15.8508 23.2504C12.3258 23.2504 10.1758 20.7504 10.1758 16.4004C10.1758 9.45039 13.6258 6.52539 18.4758 6.52539C19.0008 6.52539 19.6008 6.55039 19.9508 6.60039ZM19.2008 17.9004C19.2008 15.9754 18.1008 14.6504 15.9758 14.6504C13.8758 14.6504 12.6508 16.3254 12.6508 17.7254C12.6508 19.7504 13.8258 21.4004 16.0508 21.4004C18.0508 21.4004 19.2008 19.9504 19.2008 17.9004Z" />
      </svg>
    </symbol>
    <symbol id="circle-7-black">
      <svg xmlns="http://www.w3.org/2000/svg" width="30" height="30" viewBox="0 0 30 30">
        <path fill="#333"
          d="M21.2499998,6.75000065 L21.2499998,8.70000057 C18.7249999,13.4000004 16.45,18.7500007 15.0000001,23 L12.3750002,23 C14.0250001,18.4750002 16.2750003,13.2750004 18.6499999,8.90000056 C18.075,8.92500056 14.8000001,8.95000056 12.4750002,8.95000056 L10.2750003,8.95000056 L10.2750003,6.75000065 L21.2499998,6.75000065 Z" />
      </svg>
    </symbol>
    <symbol id="circle-8-black">
      <svg xmlns="http://www.w3.org/2000/svg" width="30" height="30" viewBox="0 0 30 30">
        <path fill="#333"
          d="M20.7499998,18.8250002 C20.7499998,21.5500001 18.2999999,23.25 15.1000001,23.25 C11.8500002,23.25 9.72500027,21.6500001 9.72500027,19.1750002 C9.72500027,17.1000002 11.3750002,15.8500003 13.2000001,14.8000003 C11.3000002,13.8250004 10.1250003,12.6750004 10.1250003,10.8000005 C10.1250003,8.32500059 12.2500002,6.50000066 15.375,6.50000066 C18.4999999,6.50000066 20.3499998,8.15000059 20.3499998,10.4500005 C20.3499998,12.3250004 18.9249999,13.4750004 17.25,14.4750003 C19.0499999,15.4000003 20.7499998,16.5500003 20.7499998,18.8250002 Z M18.0499999,10.6500005 C18.0499999,9.17500055 16.925,8.30000059 15.2000001,8.30000059 C13.4500002,8.30000059 12.4500002,9.35000055 12.4500002,10.6000005 C12.4500002,11.9500004 13.3750001,12.6500004 15.375,13.6250004 C16.825,12.8000006 18.0499999,11.9750004 18.0499999,10.6500005 Z M18.3999999,19.0500002 C18.3999999,17.2750002 16.825,16.4750003 15.0750002,15.6750003 C13.5000001,16.5500003 12.0750002,17.4750002 12.0750002,19.0000002 C12.0750002,20.4000001 13.2250001,21.4000001 15.325,21.4000001 C17.05,21.4000001 18.3999999,20.5500001 18.3999999,19.0500002 Z" />
      </svg>
    </symbol>
    <symbol id="circle-9-black">
      <svg xmlns="http://www.w3.org/2000/svg" width="30" height="30" viewBox="0 0 30 30">
        <path fill="#333"
          d="M10.9000002,23.05 L10.9000002,21.0250001 C11.6000002,21.2000001 12.4000002,21.2750001 13.1500002,21.2750001 C16.35,21.2750001 18.1,19.6250001 18.6749999,16.4000003 C18.7499999,15.9250003 18.7999999,15.6250003 18.8999999,15.2000003 L18.8749999,15.2000003 C18.075,16.3500003 16.7,17.0500002 14.9750001,17.0500002 C11.7750002,17.0500002 10.0000003,14.9500003 10.0000003,12.1500004 C10.0000003,8.72500057 12.3500002,6.50000066 15.6000001,6.50000066 C19.0000003,6.50000066 21.2249998,8.57500058 21.2249998,13.3500004 C21.2249998,20.4500001 17.725,23.225 12.9000002,23.225 C12.2500002,23.225 11.5500002,23.175 10.9000002,23.05 Z M18.7249999,12.0000004 C18.7249999,9.90000052 17.575,8.35000059 15.4250001,8.35000059 C13.4500001,8.35000059 12.2750002,9.87500053 12.2750002,11.8000004 C12.2750002,13.8250004 13.4250001,15.1250003 15.4250001,15.1250003 C17.55,15.1250003 18.7249999,13.7000004 18.7249999,12.0000004 Z" />
      </svg>
    </symbol>
    <symbol id="circle-0-black">
      <svg xmlns="http://www.w3.org/2000/svg" width="30" height="30" viewBox="0 0 30 30">
        <path fill="#333"
          d="M20.9249998,14.7000003 C20.9249998,20.9250001 18.0500003,23.25 15.1000001,23.25 C11.5250002,23.25 9.55000028,21.0500001 9.55000028,14.8000003 C9.55000028,9.10000056 12.0000002,6.50000066 15.4,6.50000066 C18.6249999,6.50000066 20.9249998,8.42500058 20.9249998,14.7000003 Z M18.4999999,14.8500003 C18.4999999,10.0250005 17.45,8.40000058 15.2250001,8.40000058 C13.3750001,8.40000058 11.9750002,10.0000005 11.9750002,14.6500003 C11.9750002,19.2500001 12.8250001,21.3250001 15.2250001,21.3250001 C17.275,21.3250001 18.4999999,19.2500001 18.4999999,14.8500003 Z" />
      </svg>
    </symbol>
    
    <symbol id="bar-middle">
      <svg xmlns="http://www.w3.org/2000/svg" width="36" height="30" viewBox="0 0 36 30">
        <rect width="36" height="30" fill="#333" fill-rule="evenodd" />
      </svg>
    </symbol>
    <symbol id="bar-end">
      <svg xmlns="http://www.w3.org/2000/svg" width="15" height="30" viewBox="0 0 15 30">
        <path fill="#333" fill-rule="evenodd"
          d="M15,0 C6.71572875,0 0,6.71572875 0,15 C0,23.2842712 6.71572875,30 15,30 L15,0 Z" />
      </svg>
    </symbol>

    <symbol id="circle-1">
      <svg xmlns="http://www.w3.org/2000/svg" width="30" height="30" viewBox="0 0 30 30">
        <g fill="none" fill-rule="evenodd">
          <circle cx="15" cy="15" r="15" fill="#333" />
          <polygon fill="#FFF" fill-rule="nonzero"
            points="21.275 23 10.725 23 10.725 20.975 15.1 20.975 15.1 9 11.1 10.35 10.7 8.45 15.475 6.75 17.425 6.75 17.425 20.975 21.275 20.975" />
        </g>
      </svg>
    </symbol>
    <symbol id="circle-2">
      <svg xmlns="http://www.w3.org/2000/svg" width="30" height="30" viewBox="0 0 30 30">
        <g fill="none" fill-rule="evenodd" transform="translate(0 -2)">
          <circle cx="15" cy="17" r="15" fill="#333" />
          <path fill="#FFF" fill-rule="nonzero"
            d="M20.9749998,25 L10.3250003,25 L10.3250003,23.1750001 L13.9000001,19.6500002 C17.35,16.3500003 17.925,15.1500004 17.925,13.5750005 C17.925,11.8750005 16.775,10.5250007 14.7000001,10.5250007 C13.2250002,10.5250007 11.8500002,11.1500006 11.0250002,11.7750005 L10.4750003,9.85000061 C11.7000002,9.07500064 13.3000001,8.52500066 15.1000001,8.52500066 C18.6499999,8.52500066 20.3749999,10.7500006 20.3749999,13.2000005 C20.3749999,15.3250004 19.6249999,16.9750003 16.375,20.0000002 L13.3500001,22.8750001 L13.3500001,22.9000001 C14.4000001,22.8750001 16.225,22.8500001 18.4999999,22.8500001 L20.9749998,22.8500001 L20.9749998,25 Z" />
        </g>
      </svg>
    </symbol>
    <symbol id="circle-3">
      <svg xmlns="http://www.w3.org/2000/svg" width="30" height="30" viewBox="0 0 30 30">
        <g fill="none" fill-rule="evenodd" transform="translate(0 -2)">
          <circle cx="15" cy="17" r="15" fill="#333" />
          <path fill="#FFF" fill-rule="nonzero"
            d="M10.8000002,24.85 L11.0500002,22.8250001 C11.9500002,23.1250001 13.0000002,23.3250001 14.1250001,23.3250001 C16.85,23.3250001 18.2749999,22.1000001 18.2749999,20.3250002 C18.2749999,18.5500003 16.875,17.4250003 14.2250001,17.4250003 C13.3250001,17.4250003 12.6250002,17.4500003 11.7750002,17.5500003 L11.7750002,15.7500004 L12.3500002,15.7500004 C15.85,15.7500004 17.95,14.8000004 17.95,12.7500005 C17.95,11.2750005 16.775,10.3750006 14.8750001,10.3750006 C13.5000001,10.3750006 12.3250002,10.7500006 11.3000002,11.3000005 L11.0750002,9.32500063 C12.2500002,8.85000065 13.6250001,8.50000066 15.2750001,8.50000066 C18.6249999,8.50000066 20.3249999,10.1750006 20.3249999,12.4000005 C20.3249999,14.3250004 19.1749999,15.6250004 17.225,16.2000004 L17.2,16.2250004 C19.2249999,16.4250003 20.7249999,18.0750003 20.7249999,20.0250002 C20.7249999,23.2250001 18.05,25.25 13.9000001,25.25 C12.7750002,25.25 11.6250002,25.075 10.8000002,24.85 Z" />
        </g>
      </svg>
    </symbol>
    <symbol id="circle-4">
      <svg xmlns="http://www.w3.org/2000/svg" width="30" height="30" viewBox="0 0 30 30">
        <g fill="none" fill-rule="evenodd" transform="translate(0 -2)">
          <circle cx="15" cy="17" r="15" fill="#333" />
          <path fill="#FFF" fill-rule="nonzero"
            d="M20.5749998,21.2500007 L17.8999999,21.2500007 L17.8999999,25 L15.675,25 L15.675,21.2500007 L8.1250003,21.2500007 L7.9500003,19.4250002 L14.85,8.75000065 L17.8999999,8.75000065 L17.8999999,19.2000002 L20.5749998,19.2000002 L20.5749998,21.2500007 Z M15.7,19.2000002 L15.7,11.0000006 L15.675,11.0000006 L10.2500002,19.2750002 C11.7500002,19.2000002 14.7,19.2000002 15.7,19.2000002 Z" />
        </g>
      </svg>
    </symbol>
    
    <symbol id="grid-guitar-2">
      <svg width="182" height="225" viewBox="0 0 182 209" fill="none" xmlns="http://www.w3.org/2000/svg">
        <path d="M1 48.5H180V40.5H1V48.5Z" fill="#EEEEEE" />
        <path d="M1 91.5H180V83.5H1V91.5Z" fill="#EEEEEE" />
        <path d="M1 134.5H180V126.5H1V134.5Z" fill="#EEEEEE" />
        <path d="M1 177.5H180V169.5H1V177.5Z" fill="#EEEEEE" />
        <rect x="1" y="1" width="180" height="215" rx="8" stroke="#333333" stroke-width="2" />
        <path fill-rule="evenodd" clip-rule="evenodd" d="M39 1.99999L39 216L35 216L35 1.99999L39 1.99999Z"
          fill="#333333" />
        <path fill-rule="evenodd" clip-rule="evenodd"
          d="M74.5 6.47666e-06L74.5 216L71.5 216L71.5 6.61612e-06L74.5 6.47666e-06Z" fill="#333333" />
        <path fill-rule="evenodd" clip-rule="evenodd"
          d="M109.954 6.51366e-06L109.954 216L107.75 216L107.75 6.61612e-06L109.954 6.51366e-06Z" fill="#333333" />
        <path fill-rule="evenodd" clip-rule="evenodd" d="M146 2L146 216L144 216L144 2L146 2Z" fill="#333333" />
        <path
          d="M0 11C0 6.02943 4.02944 2 9 2C6.23858 2 4 6.02944 4 11V206C4 210.971 6.23858 215 9 215C4.02944 215 0 210.971 0 206V11Z"
          fill="#333333" />
      </svg>
    </symbol>
    
    <symbol id="grid-guitar-1">
      <svg width="182" height="225" viewBox="0 0 182 225" fill="none" xmlns="http://www.w3.org/2000/svg">
        <path d="M1 56.5H180V48.5H1V56.5Z" fill="#EEEEEE" />
        <path d="M1 99.5H180V91.5H1V99.5Z" fill="#EEEEEE" />
        <path d="M1 142.5H180V134.5H1V142.5Z" fill="#EEEEEE" />
        <path d="M1 185.5H180V177.5H1V185.5Z" fill="#EEEEEE" />
        <rect x="1" y="1" width="180" height="223" rx="8" stroke="#333333" stroke-width="2" />
        <path d="M1 9H181V216C181 220.418 177.418 224 173 224H9C4.58173 224 1 220.418 1 216V9Z" stroke="#333333"
          stroke-width="2" />
        <path fill-rule="evenodd" clip-rule="evenodd" d="M39 9.99999L39 224L35 224L35 9.99999L39 9.99999Z"
          fill="#333333" />
        <path fill-rule="evenodd" clip-rule="evenodd" d="M4.00001 9L4 216L0 216L9.04826e-06 9L4.00001 9Z"
          fill="#333333" />
        <path fill-rule="evenodd" clip-rule="evenodd" d="M74.5 8.00001L74.5 224L71.5 224L71.5 8.00001L74.5 8.00001Z"
          fill="#333333" />
        <path fill-rule="evenodd" clip-rule="evenodd"
          d="M109.954 8.00001L109.954 224L107.75 224L107.75 8.00001L109.954 8.00001Z" fill="#333333" />
        <path fill-rule="evenodd" clip-rule="evenodd" d="M146 10L146 224L144 224L144 10L146 10Z" fill="#333333" />
        <path d="M0 9H4V214C4 218.971 6.23858 223 9 223C4.02944 223 0 218.971 0 214V9Z" fill="#333333" />
      </svg>
    </symbol>
    <symbol id="o">
      <svg xmlns="http://www.w3.org/2000/svg" width="30" height="30" viewBox="0 0 30 30">
        <path fill="#333"
          d="M15,28 C22.1797017,28 28,22.1797017 28,15 C28,7.82029825 22.1797017,2 15,2 C7.82029825,2 2,7.82029825 2,15 C2,22.1797017 7.82029825,28 15,28 Z M15,26 C8.92486775,26 4,21.0751322 4,15 C4,8.92486775 8.92486775,4 15,4 C21.0751322,4 26,8.92486775 26,15 C26,21.0751322 21.0751322,26 15,26 Z" />
      </svg>
    </symbol>
    <symbol id="x">
      <svg xmlns="http://www.w3.org/2000/svg" width="30" height="30" viewBox="0 0 30 30">
        <g fill="#333" transform="translate(4 4)">
          <path
            d="M-0.478500931,0.760139452 L21.061059,22.2996994 C21.4515833,22.6902237 22.0847483,22.6902237 22.4752726,22.2996994 C22.8657968,21.9091751 22.8657968,21.2760101 22.4752726,20.8854858 L0.935712632,-0.654074111 C0.54518834,-1.0445984 -0.0879766389,-1.0445984 -0.478500931,-0.654074111 C-0.869025222,-0.263549819 -0.869025222,0.36961516 -0.478500931,0.760139452 Z"
            transform="rotate(-90 10.998 10.823)" />
          <path
            d="M-0.299699374,0.935712632 L21.2398605,22.4752726 C21.6303848,22.8657968 22.2635498,22.8657968 22.6540741,22.4752726 C23.0445984,22.0847483 23.0445984,21.4515833 22.6540741,21.061059 L1.11451419,-0.478500931 C0.723989897,-0.869025222 0.090824918,-0.869025222 -0.299699374,-0.478500931 C-0.690223666,-0.0879766389 -0.690223666,0.54518834 -0.299699374,0.935712632 Z" />
        </g>
      </svg>
    </symbol>
    
  </defs><symbol id="chord"><svg width="326" height="281" xmlns="http://www.w3.org/2000/svg" xmlns:xlink="http://www.w3.org/1999/xlink" version="1.1"><use x="72" y="56" width="182" height="225" xlink:href="#grid-guitar-1"/><use x="21" y="71" width="30" height="30" xlink:href="#circle-1-black"/><use x="58" y="25" width="30" height="30" xlink:href="#x"/><use x="94" y="25" width="30" height="30" xlink:href="#o"/><use x="130" y="114" width="30" height="30" xlink:href="#circle-1"/><use x="166" y="114" width="30" height="30" xlink:href="#circle-2"/><use x="202" y="114" width="30" height="30" xlink:href="#circle-3"/><use x="238" y="25" width="30" height="30" xlink:href="#o"/></svg></symbol><use xlink:href="#chord"/></svg>
